src/img/calendar.svg

<svg width="32" height="32" viewBox="0 0 32 32" fill="none" xmlns="http://www.w3.org/2000/svg">
<path d="M1 11H31M7.66667 1V4.33333M24.3333 1V4.33333M6 16H9.33333M14.3333 16H17.6667M22.6667 16H26M6 21H9.33333M14.3333 21H17.6667M22.6667 21H26M6 26H9.33333M14.3333 26H17.6667M22.6667 26H26M6.33333 31H25.6667C27.5335 31 28.467 31 29.18 30.6367C29.8072 30.3172 30.3172 29.8072 30.6367 29.18C31 28.467 31 27.5335 31 25.6667V9.66667C31 7.79982 31 6.8664 30.6367 6.15337C30.3172 5.52615 29.8072 5.01622 29.18 4.69665C28.467 4.33333 27.5335 4.33333 25.6667 4.33333H6.33333C4.4665 4.33333 3.53307 4.33333 2.82003 4.69665C2.19282 5.01622 1.68288 5.52615 1.36332 6.15337C1 6.8664 1 7.79982 1 9.66667V25.6667C1 27.5335 1 28.467 1.36332 29.18C1.68288 29.8072 2.19282 30.3172 2.82003 30.6367C3.53307 31 4.46648 31 6.33333 31Z" stroke="#0223B5" stroke-linecap="round"/>
</svg>

<svg fill="none" xmlns="http://www.w3.org/2000/svg" viewBox="0 0 32 32"><path d="M1 11h30M7.7 1v3.3M24.3 1v3.3M6 16h3.3m5 0h3.4m5 0H26M6 21h3.3m5 0h3.4m5 0H26M6 26h3.3m5 0h3.4m5 0H26M6.3 31h19.4q2.6.1 3.5-.4 1-.5 1.4-1.4.5-1 .4-3.5v-16c0-1.9 0-2.8-.4-3.5q-.5-1-1.4-1.5-1-.5-3.5-.4H6.3q-2.6-.1-3.5.4-1 .5-1.4 1.5C1 6.9 1 7.8 1 9.7v16q-.1 2.6.4 3.5.5 1 1.4 1.4 1 .5 3.5.4Z" stroke="#0223B5" stroke-linecap="round"/></svg>
